!!!COM: Luzzaschi. Luzzasco
!!!CDT:
!!!PTL: Il secondo libro de madrigali a cinque voci
!!!PPP: Venice
!!!PPR: Angelo Gardano
!!!PDT: 1576
!!!RISM: L 3123
!!!rime: 367
!!!OTL:	Aminta poi ch'a Filli non dispiacque (Rime 367a)
!!!AGN: Madrigal
!!!SCT: Trm0367a
!!!SCA: Trm0367a
!!!voices: 5
**kern	**text	**kern	**text	**kern	**text	**kern	**text	**kern	**text
*part5	*part5	*part4	*part4	*part3	*part3	*part2	*part2	*part1	*part1
*staff5	*staff5	*staff4	*staff4	*staff3	*staff3	*staff2	*staff2	*staff1	*staff1
*I"Basso	*	*I"Quinto	*	*I"Tenore	*	*I"Alto	*	*I"Canto	*
*I'B	*	*I'Q	*	*I'T	*	*I'A	*	*I'C	*
*oclefC4	*	*oclefC3	*	*oclefC3	*	*oclefC2	*	*oclefG2	*

*clefF4	*	*clefGv2	*	*clefGv2	*	*clefG2	*	*clefG2	*
*k[]	*	*k[]	*	*k[]	*	*k[]	*	*k[]	*
*omet(C|)	*	*omet(C|)	*	*omet(C|)	*	*omet(C|)	*	*omet(C|)	*
*M2/2	*	*M2/2	*	*M2/2	*	*M2/2	*	*M2/2	*
=1	=1	=1	=1	=1	=1	=1	=1	=1	=1
1r	.	1r	.	2A	A-	2r	.	1r	.
.	.	.	.	[2A	-min-	4r	.	.	.
.	.	.	.	.	.	4e	A-	.	.
=2	=2	=2	=2	=2	=2	=2	=2	=2	=2
1r	.	1r	.	4A]	.	4c	-min-	1r	.
.	.	.	.	4G	-ta	4d	-ta	.	.
.	.	.	.	4c	poi	4e	poi	.	.
.	.	.	.	4c	ch'a	4g	ch'a	.	.
=3	=3	=3	=3	=3	=3	=3	=3	=3	=3
2r	.	1r	.	2d	Fil-	4f	Fil-	1r	.
.	.	.	.	.	.	8eL	.	.	.
.	.	.	.	.	.	8dJ	.	.	.
2A	A-	.	.	4e	-li	8cL	.	.	.
.	.	.	.	.	.	8BJ	.	.	.
.	.	.	.	[4e	non	[4c	.	.	.
=4	=4	=4	=4	=4	=4	=4	=4	=4	=4
2.A	-min-	1r	.	8eL]	.	8cL]	.	4r	.
.	.	.	.	8d	.	8dJ	.	.	.
.	.	.	.	8c	.	2e	.	4cc	A-
.	.	.	.	8BJ	.	.	.	.	.
.	.	.	.	4c	.	.	.	4a	-min-
4G	-ta	.	.	4d	di-	4g	-li	4b	-ta,
=5	=5	=5	=5	=5	=5	=5	=5	=5	=5
4c	poi	1r	.	8eL	-spiac-	4g	non	4cc	poi
.	.	.	.	8f	.	.	.	.	.
4c	ch'a	.	.	8g	.	4cc	di-	4ee	ch'a
.	.	.	.	8aJ	.	.	.	.	.
2d	Fil-	.	.	2f	.	2a	-spiac-	4ff	Fil-
.	.	.	.	.	.	.	.	8eeL	.
.	.	.	.	.	.	.	.	8ddJ	.
=6	=6	=6	=6	=6	=6	=6	=6	=6	=6
2A	-li	1r	.	4e	-que,	2a	-que,	8ccL	.
.	.	.	.	.	.	.	.	8bJ	.
.	.	.	.	2e	Del	.	.	4.cc	.
4.c	non	.	.	.	.	2g	Del	.	.
.	.	.	.	.	.	.	.	8dd	.
.	.	.	.	4e	me-	.	.	[4ee	.
8B	.	.	.	.	.	.	.	.	.
=7	=7	=7	=7	=7	=7	=7	=7	=7	=7
8AL	.	1r	.	2e	-de-	4cc	me-	4ee]	.
8GJ	.	.	.	.	.	.	.	.	.
2A	.	.	.	.	.	4.a	-de-	4cc	-li
.	.	.	.	4e	-smo	.	.	4cc	non
.	.	.	.	.	.	8a	-smo	.	.
4D	di-	.	.	4d	de-	4a	de-	4ff	di-
=8	=8	=8	=8	=8	=8	=8	=8	=8	=8
2A	-spiac-	4r	.	4c	-sir	4a	-sir	2ee	-spiac-
.	.	2e	Del	4A	mo-	4cc	mo-	.	.
4E	-que,	.	.	4A	-strar-	4cc	-strar-	4ee	-que,
4E	Del	4e	me-	4G	-si ac-	4b	-si ac-	[4gg	Del
=9	=9	=9	=9	=9	=9	=9	=9	=9	=9
4C	me-	2e	-de-	8cL	-ce-	2cc	-ce-	4gg]	.
.	.	.	.	8d	.	.	.	.	.
4.C	-de-	.	.	8e	.	.	.	4gg	me-
.	.	.	.	8fJ	.	.	.	.	.
.	.	4e	-smo	2g	.	4cc	-sa,	2gg	-de-
8C	-smo	.	.	.	.	.	.	.	.
4G	de-	4d	de-	.	.	4b	mo-	.	.
=10	=10	=10	=10	=10	=10	=10	=10	=10	=10
2.c	-sir	4c	-sir	4e	-sa,	8ccL	-strar-	4gg	-smo
.	.	.	.	.	.	8gJ	-si ac-	.	.
.	.	4A	mo-	4a	mo-	4.cc	-ce-	4ff	de-
.	.	4A	-strar-	4a	-strar-	.	.	4ee	-sir
.	.	.	.	.	.	16bLL	.	.	.
.	.	.	.	.	.	16aJJ	.	.	.
4d	mo-	4G	-si ac-	4d	-si ac-	4b	.	4gg	mo-
=11	=11	=11	=11	=11	=11	=11	=11	=11	=11
4.e	-strar-	8cL	-ce-	4.c	-ce-	2cc	-sa,	2gg	-strar-
.	.	8d	.	.	.	.	.	.	.
.	.	8e	.	.	.	.	.	.	.
8d	.	8fJ	.	8d	.	.	.	.	.
4c	.	2g	.	8eL	.	2r	.	4ee	-si ac-
.	.	.	.	8f	.	.	.	.	.
4B	-si ac-	.	.	8g	.	.	.	[4dd	-ce-
.	.	.	.	8dJ	.	.	.	.	.
=12	=12	=12	=12	=12	=12	=12	=12	=12	=12
2c	-ce-	1g	-sa,	4.e	.	1r	.	8ddL]	.
.	.	.	.	.	.	.	.	8ccJ	.
.	.	.	.	.	.	.	.	4.cc	.
.	.	.	.	16dLL	.	.	.	.	.
.	.	.	.	16cJJ	.	.	.	.	.
2G	-sa,	.	.	2d	.	.	.	.	.
.	.	.	.	.	.	.	.	16bLL	.
.	.	.	.	.	.	.	.	16aJJ	.
.	.	.	.	.	.	.	.	4b	.
=13	=13	=13	=13	=13	=13	=13	=13	=13	=13
1r	.	1r	.	1c	-sa,	2e	E	2cc	-sa,
.	.	.	.	.	.	4g	ch'el-	4r	.
.	.	.	.	.	.	4a	-la a	4cc	E
=14	=14	=14	=14	=14	=14	=14	=14	=14	=14
2r	.	2r	.	1r	.	4g	que-	4ee	ch'el-
.	.	.	.	.	.	4f	-sto	4ff	-la a
4r	.	4r	.	.	.	2g	sol	4ee	que-
4B	già	4g	già	.	.	.	.	4dd	-sto
=15	=15	=15	=15	=15	=15	=15	=15	=15	=15
4c	tan-	4g	tan-	1r	.	2r	.	2ee	sol
4c	-to at-	4e	-to at-	.	.	.	.	.	.
4.A	-te-	8fL	-te-	.	.	4r	.	2r	.
.	.	8eJ	.	.	.	.	.	.	.
.	.	[4e	.	.	.	4cc	già	.	.
8G	.	.	.	.	.	.	.	.	.
=16	=16	=16	=16	=16	=16	=16	=16	=16	=16
2F	.	8eL]	.	1r	.	4cc	tan-	2r	.
.	.	16dL	.	.	.	.	.	.	.
.	.	16cJJ	.	.	.	.	.	.	.
.	.	4d	.	.	.	4a	-to at-	.	.
4E	-sa,	4G	-sa,	.	.	8ccL	-te-	4r	.
.	.	.	.	.	.	8bJ	.	.	.
4E	già	4G	già	.	.	[4b	.	4ee	già
=17	=17	=17	=17	=17	=17	=17	=17	=17	=17
4D	tan-	4A	tan-	4r	.	8bL]	.	4ff	tan-
.	.	.	.	.	.	16aL	.	.	.
.	.	.	.	.	.	16gJJ	.	.	.
4D	-to at-	4d	-to at-	4A	Ne	2a	.	4ff	-to at-
2E	-te-	2B	-te-	4.e	le	.	.	4.ee	-te-
.	.	.	.	.	.	4g	-sa,	.	.
.	.	.	.	8e	sue	.	.	8dd	.
=18	=18	=18	=18	=18	=18	=18	=18	=18	=18
2A	-sa,	4c	-sa,	4e	brac-	1r	.	2cc	.
.	.	4A	Ne	4f#X	-cia al	.	.	.	.
4r	.	4.e	le	2g	fin	.	.	4b	-sa,
4E	Ne	.	.	.	.	.	.	4b	Ne
.	.	8e	sue	.	.	.	.	.	.
=19	=19	=19	=19	=19	=19	=19	=19	=19	=19
4.A	le	2e	brac-	1r	.	1r	.	4cc	le
.	.	.	.	.	.	.	.	4cc	sue
8A	sue	.	.	.	.	.	.	.	.
4A	brac-	4f#X	-cia al	.	.	.	.	4a	brac-
4B	-cia al	4g	fin	.	.	.	.	4dd	-cia al
=20	=20	=20	=20	=20	=20	=20	=20	=20	=20
2c	fin,	1r	.	1r	.	4r	.	4ee	fin
.	.	.	.	.	.	4e	Ne	4gg	nu-
2r	.	.	.	.	.	4.a	le	4ff	-da
.	.	.	.	.	.	.	.	4ee	si
.	.	.	.	.	.	8a	sue	.	.
=21	=21	=21	=21	=21	=21	=21	=21	=21	=21
2r	.	4r	.	1r	.	4a	brac-	2ff	giac-
.	.	4d	nu-	.	.	4b	-cia al	.	.
4r	.	4c	-da	.	.	4cc	fin	2ee	-que,
4E	<Ne	4B	si	.	.	4g	nu-	.	.
=22	=22	=22	=22	=22	=22	=22	=22	=22	=22
4.A	le	2c	giac-	2r	.	4f	-da	1r	.
.	.	.	.	.	.	4e	si	.	.
8A	sue	.	.	.	.	.	.	.	.
4A	brac-	4A	-que,	4r	.	2f	giac-	.	.
4B	-cia al	4d	Ne	[4d	nu-	.	.	.	.
=23	=23	=23	=23	=23	=23	=23	=23	=23	=23
2c	fin>	4g	le	4d]	.	4e	-que,	1r	.
.	.	4g	sue	2c	-da	4e	nu-	.	.
2G	nu-	2g	brac-	.	.	8dL	-da	.	.
.	.	.	.	.	.	8cJ	si	.	.
.	.	.	.	4B	si	8.dL	giac-	.	.
.	.	.	.	.	.	16eJk	.	.	.
=24	=24	=24	=24	=24	=24	=24	=24	=24	=24
4F	-da	4a	-cia al	2c	giac-	8fL	.	1r	.
.	.	.	.	.	.	8cJ	.	.	.
4E	si	4g	fin	.	.	4.e	.	.	.
2F	giac-	4r	.	2A	-que,	.	.	.	.
.	.	.	.	.	.	16dLL	.	.	.
.	.	.	.	.	.	16cJJ	.	.	.
.	.	4d	nu-	.	.	4d	.	.	.
=25	=25	=25	=25	=25	=25	=25	=25	=25	=25
1E	-que,	4c	-da	1r	.	1e	-que,	1r	.
.	.	4B	si	.	.	.	.	.	.
.	.	2c	giac-	.	.	.	.	.	.
=26	=26	=26	=26	=26	=26	=26	=26	=26	=26
2r	.	1B	-que,	2r	.	2r	.	2r	.
2E	Dal	.	.	2e	Dal	2g#X	Dal	2b	Dal
=27	=27	=27	=27	=27	=27	=27	=27	=27	=27
4E	so-	1r	.	4e	so-	4g#i	so-	4b	so-
4.A	-ver-	.	.	4.e	-ver-	4.a	-ver-	4.cc	-ver-
8A	-chio	.	.	8e	-chio	8a	-chio	8cc	-chio
4D	pia-	.	.	4d	pia-	4f#X	pia-	4a	pia-
=28	=28	=28	=28	=28	=28	=28	=28	=28	=28
4G	-cer	4r	.	4d	-cer	4g	-cer	4b	-cer
4C	sen-	4e	Dal	4c	sen-	4g	sen-	4cc	sen-
4C	-ten-	4e	so-	4c	-ten-	4g	-ten-	4cc	-ten-
4F	-do of-	[4a	-ver-	4A	-do of-	4c	-do of-	4cc	-do of-
=29	=29	=29	=29	=29	=29	=29	=29	=29	=29
2D	-fe-	8aL]	.	4.A	-fe-	2f	-fe-	2dd	-fe-
.	.	8aJ	-chio	.	.	.	.	.	.
.	.	4d	pia-	.	.	.	.	.	.
.	.	.	.	8B	.	.	.	.	.
2C	-sa,	4g	-cer	4c	.	2e	-sa,	2ee	-sa,
.	.	4g	sen-	[4G	-sa,	.	.	.	.
=30	=30	=30	=30	=30	=30	=30	=30	=30	=30
2G	L'al-	4g	-ten-	4G]	.	2d	L'al-	2b	L'al-
.	.	4g	-do of-	4.d	L'al-	.	.	.	.
4D	-ma	2a	-fe-	.	.	4f	-ma	4dd	-ma
.	.	.	.	8d	-ma	.	.	.	.
4D	fe-	.	.	4A	fe-	4f	fe-	4dd	fe-
=31	=31	=31	=31	=31	=31	=31	=31	=31	=31
1A	-li-	4a	-sa,	1c	-li-	1e	-li-	2cc	-li-
.	.	4.a	L'al-	.	.	.	.	.	.
.	.	.	.	.	.	.	.	2a	-ce
.	.	8a	-ma	.	.	.	.	.	.
.	.	4e	fe-	.	.	.	.	.	.
=32	=32	=32	=32	=32	=32	=32	=32	=32	=32
1E	-ce	2g	-li-	1B	-ce	2e	-ce	4r	.
.	.	.	.	.	.	.	.	4ee	in
.	.	2e	-ce in	.	.	4r	.	2gg	sì
.	.	.	.	.	.	4g	in	.	.
=33	=33	=33	=33	=33	=33	=33	=33	=33	=33
2r	.	2a	si	1r	.	2cc	si	4ee	bel
.	.	.	.	.	.	.	.	4.ff	lac-
4r	.	2g	bel	.	.	4b	bel	.	.
.	.	.	.	.	.	.	.	8ee	.
4C	in	.	.	.	.	[4cc	lac-	[4ee	.
=34	=34	=34	=34	=34	=34	=34	=34	=34	=34
2F	si	4.f	lac-	4A	in	4cc]	.	4ee]	.
.	.	.	.	2d	si	4a	-cio	4dd	-cio
.	.	8d	.	.	.	.	.	.	.
2E	bel	2g	.	.	.	4g	pre-	2ee	pre-
.	.	.	.	4c#X	bel	4e	-sa,	.	.
=35	=35	=35	=35	=35	=35	=35	=35	=35	=35
4D	lac-	4f	-cio	4d	lac-	2r	.	1a	-sa,
4C#X	-cio	4.e	pre-	4e	-cio	.	.	.	.
2D	pre-	.	.	2f	pre-	4r	.	.	.
.	.	8d	.	.	.	.	.	.	.
.	.	4d	.	.	.	4a	A	.	.
=36	=36	=36	=36	=36	=36	=36	=36	=36	=36
1A	-sa,	2e	-sa,	4e	-sa,	4.cc	lei	2r	.
.	.	.	.	4c	A	.	.	.	.
.	.	.	.	.	.	8cc	che	.	.
.	.	2r	.	4.e	lei	4cc	più	4r	.
.	.	.	.	.	.	4cc	ch'al-	4ee	A
.	.	.	.	8e	che	.	.	.	.
=37	=37	=37	=37	=37	=37	=37	=37	=37	=37
4r	.	1r	.	4e	più	4b	-cun'	4.gg	lei
4E	A	.	.	4e	ch'al-	4.b	al-	.	.
.	.	.	.	.	.	.	.	8gg	che
4.G	lei	.	.	4d	-cun'	.	.	4gg	più
.	.	.	.	.	.	8b	-tra	.	.
.	.	.	.	[4d	al-	4b	gli	4gg	ch'al-
8G	che	.	.	.	.	.	.	.	.
=38	=38	=38	=38	=38	=38	=38	=38	=38	=38
4D	piì	1r	.	8dL]	.	1a	piac-	4ff	-cun'
.	.	.	.	8dJ	-tra	.	.	.	.
4D	ch'al-	.	.	4d	gli	.	.	4.ff	al-
8.FL	-cun'	.	.	[2c	piac-	.	.	.	.
.	.	.	.	.	.	.	.	8ff	-tra
16GJk	.	.	.	.	.	.	.	.	.
8.AL	.	.	.	.	.	.	.	4ff	gli
16BJk	.	.	.	.	.	.	.	.	.
=39	=39	=39	=39	=39	=39	=39	=39	=39	=39
4c	.	1r	.	2c]	.	2.g	-que,	2ee	piac-
4C	al-	.	.	.	.	.	.	.	.
4G	-tra	.	.	4B	-que,	.	.	4dd	-que,
4G	gli	.	.	4d	Co-	4g	Co-	4b	Co-
=40	=40	=40	=40	=40	=40	=40	=40	=40	=40
2A	piac-	1r	.	4c	-sì	2e	-sì	2cc	-sì
.	.	.	.	2A	lan-	.	.	.	.
4D	-que,	.	.	.	.	2f	lan-	4a	lan-
4D	Co-	.	.	[4d	-guen-	.	.	4b	-guen-
=41	=41	=41	=41	=41	=41	=41	=41	=41	=41
2E	-sì	2r	.	4d]	.	4e	-guen-	4g#X	-do
.	.	.	.	4c	-do	4e	-do	2a	dis-
2E	lan-	4r	.	2B	dis-	2e	dis-	.	.
.	.	4e	Co-	.	.	.	.	4g#i	.
=42	=42	=42	=42	=42	=42	=42	=42	=42	=42
2.D	-guen-	2f	-sì	2d	-se	4A	-se,	1a	-se
.	.	.	.	.	.	4d	Co-	.	.
.	.	4d	lan-	2r	.	4f	-sì	.	.
4A	-do	4e	-guen-	.	.	4c	lan-	.	.
=43	=43	=43	=43	=43	=43	=43	=43	=43	=43
2A	dis-	4c#X	-do	2r	.	4e	-guen-	1r	.
.	.	2d	dis-	.	.	4f	-do	.	.
2A	-se	.	.	4r	.	2e	dis-	.	.
.	.	4c#i	.	4a	e	.	.	.	.
=44	=44	=44	=44	=44	=44	=44	=44	=44	=44
1r	.	2d	-se	4f	poi	2d	-se	4r	.
.	.	.	.	4d	si	.	.	4dd	e
.	.	2r	.	2f	tac-	4r	.	4cc	poi
.	.	.	.	.	.	4a	e	4a	si
=45	=45	=45	=45	=45	=45	=45	=45	=45	=45
1r	.	2r	.	2e	-que,	4g	poi	2b	tac-
.	.	.	.	.	.	4e	si	.	.
.	.	4r	.	2r	.	2f	tac-	2a	-que,
.	.	4d	e	.	.	.	.	.	.
=46	=46	=46	=46	=46	=46	=46	=46	=46	=46
2A	e	4c	poi	2r	.	2e	-que,	1r	.
.	.	4A	si	.	.	.	.	.	.
4G	poi	2B	tac-	4r	.	2r	.	.	.
4E	si	.	.	4e	e	.	.	.	.
=47	=47	=47	=47	=47	=47	=47	=47	=47	=47
2F	tac-	2A	-que,	4c	poi	4r	.	1r	.
.	.	.	.	4A	si	4a	e	.	.
[2E	-que,	2r	.	2c	tac-	4g	poi	.	.
.	.	.	.	.	.	4e	si	.	.
=48	=48	=48	=48	=48	=48	=48	=48	=48	=48
2E]	.	2r	.	2B	-que,	2g	tac-	4r	.
.	.	.	.	.	.	.	.	4ee	e
2A	si	4r	.	4r	.	2e	-que,	4cc	poi
.	.	4e	e	4c	<e	.	.	4a	si
=49	=49	=49	=49	=49	=49	=49	=49	=49	=49
1A	tac-	4c	poi	4e	poi	4r	.	1cc	tac-
.	.	4A	si	4e	si	4a	si	.	.
.	.	2e	tac-	2A	tac-	2a	tac-	.	.
=50	=50	=50	=50	=50	=50	=50	=50	=50	=50
1E	-que.	1e	-que.	1B	-que.>	1g#X	-que.	1b	-que.
=51||	=51||	=51||	=51||	=51||	=51||	=51||	=51||	=51||	=51||
2A	Co-	2e	Co-	1r	.	2a	Co-	2cc	Co-
2D	-glie-	2d	-glie-	.	.	[2f	-glie-	2a	-glie-
=52	=52	=52	=52	=52	=52	=52	=52	=52	=52
2F	-te a-	2c	-te a-	1r	.	4f]	.	2a	-te a-
.	.	.	.	.	.	4.f	-te a-	.	.
4F	-ni-	4c	-ni-	.	.	.	.	4a	-ni-
.	.	.	.	.	.	8f	-ni-	.	.
4A	-ma	4c	-ma	.	.	4e	-ma	4cc	-ma
=53	=53	=53	=53	=53	=53	=53	=53	=53	=53
2.G	mia,	2.d	mia,	1r	.	2.g	mia,	2.b	mia
4D	quest'	4f	quest'	.	.	4a	quest'	4dd	quest'
=54	=54	=54	=54	=54	=54	=54	=54	=54	=54
2A	al-	2e	al-	1r	.	2a	al-	2cc#X	al-
2A	-ma,	2e	-ma,	.	.	2a	-ma,	2cc#i	-ma,
=55	=55	=55	=55	=55	=55	=55	=55	=55	=55
4r	.	4r	.	4r	.	4r	.	4r	.
4D	<Co-	4f	Co-	4d	Co-	4a	<Co-	4dd	<Co-
2D	-glie-	2d	-glie-	2A	-glie-	4a	-glie-	2ff	-glie-
.	.	.	.	.	.	[4a	-te a-	.	.
=56	=56	=56	=56	=56	=56	=56	=56	=56	=56
2A	-te a-	2e	-t'a-	2c	-te a-	8aL]	.	2ee	-te a-
.	.	.	.	.	.	8aJ	-ni-	.	.
.	.	.	.	.	.	4a	-ma	.	.
4A	-ni-	4a	-ni-	4c	-ni-	2cc	mia,	4ee	-ni-
4c	-ma	4g	-ma	4e	-ma	.	.	4ee	-ma
=57	=57	=57	=57	=57	=57	=57	=57	=57	=57
2G	mia,	2g	mia,	2.d	mia,	2b	quest'	2gg	mia,
2F	quest'	2r	.	.	.	[2a	al-	2dd	quest'
.	.	.	.	4A	quest'	.	.	.	.
=58	=58	=58	=58	=58	=58	=58	=58	=58	=58
2E	al-	2r	.	2e	al-	2a]	.	2cc	al-
2E	-ma,>	2B	Ch'i-	2e	-ma,	2g#X	-ma,>	2b	-ma,>
=59	=59	=59	=59	=59	=59	=59	=59	=59	=59
1r	.	4B	-o	2r	.	1r	.	1r	.
.	.	4e	vi	.	.	.	.	.	.
.	.	[2c	spi-	2e	Ch'i-	.	.	.	.
=60	=60	=60	=60	=60	=60	=60	=60	=60	=60
2r	.	4c]	.	4d	-o	1r	.	1r	.
.	.	4A	-ro in	4a	vi	.	.	.	.
2E	Ch'i-	2B	brac-	[2g	spi-	.	.	.	.
=61	=61	=61	=61	=61	=61	=61	=61	=61	=61
4E	-o	4B	-cio,	4g]	.	1r	.	2r	.
4A	vi	4c	vi	4e	-ro in	.	.	.	.
[2G	spi-	[2d	spi-	2g	brac-	.	.	2b	Ch'i-
=62	=62	=62	=62	=62	=62	=62	=62	=62	=62
4G]	.	4d]	.	2g	-cio,	1r	.	4b	-o
4E	-ro in	4c	-ro in	.	.	.	.	4ee	vi
2F	brac-	8AL	brac-	4r	.	.	.	[2cc	spi-
.	.	8B	.	.	.	.	.	.	.
.	.	8c	.	4a	vi	.	.	.	.
.	.	8dJ	.	.	.	.	.	.	.
=63	=63	=63	=63	=63	=63	=63	=63	=63	=63
4C	-cio,	4e	.	4g	spi-	1r	.	4cc]	.
4F	in	2a	.	4c	-ro in	.	.	4a	-ro in
2E	brac-	.	.	2e	brac-	.	.	2b	brac-
.	.	4g#i	.	.	.	.	.	.	.
=64	=64	=64	=64	=64	=64	=64	=64	=64	=64
1A	-cio.	2a	-cio.	1e	-cio.	2r	.	1a	-cio.
.	.	2r	.	.	.	2cc	Ahi	.	.
=65	=65	=65	=65	=65	=65	=65	=65	=65	=65
1r	.	2f	Ahi	1r	.	4a	chi	2r	.
.	.	.	.	.	.	4a	mi	.	.
.	.	4d	chi	.	.	4.a	giun-	2ff	Ahi
.	.	4d	mi	.	.	.	.	.	.
.	.	.	.	.	.	8b	-ge al	.	.
=66	=66	=66	=66	=66	=66	=66	=66	=66	=66
2c	Ahi	4A	giun-	2r	.	2.cc	co-	4ee	chi
.	.	4A	-ge al	.	.	.	.	4ee	mi
4A	chi	2c	co-	4r	.	.	.	4.ee	giun-
4A	mi	.	.	[4e	Al	4a	-re,	.	.
.	.	.	.	.	.	.	.	8ff	-ge al
=67	=67	=67	=67	=67	=67	=67	=67	=67	=67
4E	giun-	4B	-re,	4e]	.	2r	.	4gg	co-
4E	-ge al	4g	Al	4c	cor,-	.	.	4ee	-re,
2F	co-	4.c	cor-	4A	-hai	4r	.	2r	.
.	.	.	.	[4c	las-	[4a	Al	.	.
.	.	8d	.	.	.	.	.	.	.
=68	=68	=68	=68	=68	=68	=68	=68	=68	=68
2E	-re,	4e	.	4c]	.	4a]	.	1r	.
.	.	4e	-re,	4B	-so,	4g	cor,-	.	.
2A	Al	2c	hai	2r	.	4e	-hai	.	.
.	.	.	.	.	.	[4f	las-	.	.
=69	=69	=69	=69	=69	=69	=69	=69	=69	=69
4B	cor,	4d	las-	2r	.	4f]	.	2r	.
4c	hai	2e	-so hai	.	.	4e	-so,	.	.
2A	las-	.	.	2c	<Al	2r	.	4r	.
.	.	[4f	las-	.	.	.	.	4a	Al
=70	=70	=70	=70	=70	=70	=70	=70	=70	=70
4G	-so,	8fL]	.	4B	cor,-	1r	.	4b	cor,
.	.	8eJ	.	.	.	.	.	.	.
4E	Al	4.e	.	4G	-hai	.	.	4cc	hai
4F	cor,	.	.	4.A	las-	.	.	2a	las-
.	.	16dLL	.	.	.	.	.	.	.
.	.	16cJJ	.	.	.	.	.	.	.
4F	hai	4d	.	.	.	.	.	.	.
.	.	.	.	8B	.	.	.	.	.
=71	=71	=71	=71	=71	=71	=71	=71	=71	=71
2E	las-	2e	-so,	4c	.	4r	.	2g	-so un
.	.	.	.	4B	-so,>	2g	un	.	.
2D	-so un	2r	.	4r	.	.	.	4a	ve-
.	.	.	.	[4d	un	4f#X	ve-	[4b	-len
=72	=72	=72	=72	=72	=72	=72	=72	=72	=72
2E	ve-	1r	.	4d]	.	2g	-len	4b]	.
.	.	.	.	4c	ve-	.	.	2cc	dol-
2F	-len	.	.	4A	-len	2a	dol-	.	.
.	.	.	.	[4f	dol-	.	.	[4dd	-c'e
=73	=73	=73	=73	=73	=73	=73	=73	=73	=73
4G	dol-	2r	.	4f]	.	4b-X	-c'e	4dd]	.
4C	-c'e	.	.	4e	-c'e	2g	ri-	4.cc	ri-
2G	ri-	4r	.	2d	ri-	.	.	.	.
.	.	.	.	.	.	.	.	16bLL	.
.	.	.	.	.	.	.	.	16aJJ	.
.	.	[4G	un	.	.	4g	-o,	4b	.
=74	=74	=74	=74	=74	=74	=74	=74	=74	=74
2C	-o,	4G]	.	2e	-o,	4r	.	2cc	-o,
.	.	4A	ve-	.	.	4c	<un	.	.
2r	.	4B	-len	2r	.	4d	ve-	4r	.
.	.	[4c	dol-	.	.	[4e	-len	4g	un
=75	=75	=75	=75	=75	=75	=75	=75	=75	=75
4r	.	4c]	.	1r	.	4e]	.	4a	ve-
4G	un	2d	-c'e	.	.	2g	dol-	2b	-len
4G	ve-	.	.	.	.	.	.	.	.
4A	-len	[4c	ri-	.	.	4e	-c'e	4cc	dol-
=76	=76	=76	=76	=76	=76	=76	=76	=76	=76
2G	dol-	8cL]	.	1r	.	4.g	ri-	4dd	-c'e
.	.	16BL	.	.	.	.	.	.	.
.	.	16AJJ	.	.	.	.	.	.	.
.	.	4B	.	.	.	.	.	4.ee	ri-
.	.	.	.	.	.	16fLL	.	.	.
.	.	.	.	.	.	16gJJ	.	.	.
2F	-c'e	4c	-o,	.	.	[2a	.	.	.
.	.	.	.	.	.	.	.	16ddLL	.
.	.	.	.	.	.	.	.	16ccJJ	.
.	.	4A	e	.	.	.	.	4dd	.
=77	=77	=77	=77	=77	=77	=77	=77	=77	=77
4.E	ri-	8cL	ri-	1r	.	4a]	.	2ee	-o!
.	.	8BJ	.	.	.	.	.	.	.
.	.	8BL	.	.	.	4.g	.	.	.
16FLL	.	16AL	.	.	.	.	.	.	.
16GJJ	.	16BJJ	.	.	.	.	.	.	.
2A	.	4.c	.	.	.	.	.	2r	.
.	.	.	.	.	.	16f#iLL	.	.	.
.	.	.	.	.	.	16eJJ	.	.	.
.	.	.	.	.	.	4f#i	.	.	.
.	.	8d	.	.	.	.	.	.	.
=78	=78	=78	=78	=78	=78	=78	=78	=78	=78
2G	-o!	4e	.	2r	.	2g	-o!>	4r	.
.	.	4d	-o!	.	.	.	.	4b	Io'l
2r	.	4r	.	4r	.	2r	.	[2b	sent',
.	.	4g	Io'l	4e	Io'l	.	.	.	.
=79	=79	=79	=79	=79	=79	=79	=79	=79	=79
1r	.	2g	sent',	2e	sent',	1r	.	4b]	.
.	.	.	.	.	.	.	.	2cc	hoi-
.	.	2a	hoi-	2f	hoi-	.	.	.	.
.	.	.	.	.	.	.	.	4a	-mé,
=80	=80	=80	=80	=80	=80	=80	=80	=80	=80
4r	.	4g	-mé,	2e	-mé:	1r	.	4r	.
4A	Io'l	4e	<Io'l	.	.	.	.	4cc	<Io'l
2A	sent',	4e	sent',	2r	.	.	.	2cc	sent'
.	.	[4f	hoi-	.	.	.	.	.	.
=81	=81	=81	=81	=81	=81	=81	=81	=81	=81
2B-X	hoi-	4f]	.	4r	.	1r	.	2dd	hoi-
.	.	4d	-mé:>	4f	da	.	.	.	.
2A	-mé:	4r	.	4f	que-	.	.	2cc	-mé:>
.	.	4c	da	4e	-ste	.	.	.	.
=82	=82	=82	=82	=82	=82	=82	=82	=82	=82
8r	.	4c	que-	2g	lab-	1r	.	1r	.
8E	da	.	.	.	.	.	.	.	.
4E	que-	4B	-ste	.	.	.	.	.	.
4D	-ste	2d	lab-	4f	-br'a-	.	.	.	.
[4F	lab-	.	.	[4a	-mo-	.	.	.	.
=83	=83	=83	=83	=83	=83	=83	=83	=83	=83
4F]	.	4c	-br'a-	4a]	.	2r	.	8r	.
.	.	.	.	.	.	.	.	8cc	da
4E	-br'a-	4.e	-mo-	4g	-re,	.	.	4cc	que-
2G	-mo-	.	.	2r	.	4r	.	4b	-ste
.	.	16dLL	.	.	.	.	.	.	.
.	.	16cJ	.	.	.	.	.	.	.
.	.	8d	.	.	.	[4b-X	Per	[4dd	lab-
.	.	8eJ	.	.	.	.	.	.	.
=84	=84	=84	=84	=84	=84	=84	=84	=84	=84
2F	-re,	2f	.	1r	.	4b-]	.	4dd]	.
.	.	.	.	.	.	4a	tron-	4cc	-br'a-
2r	.	2c	-re,	.	.	4a	-car	2ee	-mo-
.	.	.	.	.	.	[4g	la	.	.
=85	=85	=85	=85	=85	=85	=85	=85	=85	=85
1r	.	4r	.	1r	.	4g]	.	4dd	-re,
.	.	2d	Per	.	.	4a	ra-	2ff	Per
.	.	.	.	.	.	4f	-di-	.	.
.	.	4c	tron-	.	.	4g	-ce al	4ee	tron-
=86	=86	=86	=86	=86	=86	=86	=86	=86	=86
1r	.	4c	-car	1r	.	4a	vi-	4ee	-car
.	.	2B	la	.	.	4d	-ver	2dd	la
.	.	.	.	.	.	4.g	mi-	.	.
.	.	4c	ra-	.	.	.	.	4ee	ra-
.	.	.	.	.	.	16fLL	.	.	.
.	.	.	.	.	.	16eJJ	.	.	.
=87	=87	=87	=87	=87	=87	=87	=87	=87	=87
4r	.	4A	-di-	2.a	Per	2f	.	4cc	-di-
2F	Per	4c	-ce al	.	.	.	.	4a	-ce al
.	.	8cL	vi-	.	.	2c	-o	2cc	vi-
.	.	8d	.	.	.	.	.	.	.
4E	tron-	8e	.	4g	tron-	.	.	.	.
.	.	8fJ	.	.	.	.	.	.	.
=88	=88	=88	=88	=88	=88	=88	=88	=88	=88
4E	-car	8gL	.	4g	-car	1r	.	4b	-ver
.	.	8eJ	.	.	.	.	.	.	.
2D	la	4a	.	2f#X	la	.	.	2dd	mi-
.	.	4A	-ver	.	.	.	.	.	.
4E	ra-	[4e	mi-	4g	ra-	.	.	8ccL	.
.	.	.	.	.	.	.	.	8bJ	.
=89	=89	=89	=89	=89	=89	=89	=89	=89	=89
4C	-di-	4e]	.	4e	-di-	1r	.	8ccL	.
.	.	.	.	.	.	.	.	8ddJ	.
4C	-ce al	8dL	.	4g	-ce al	.	.	4ee	.
.	.	8cJ	.	.	.	.	.	.	.
8FL	vi-	4d	.	4fnXi	vi-	.	.	[2a	-o
8G	.	.	.	.	.	.	.	.	.
8A	.	4c	-o	4f	-ver	.	.	.	.
8BJ	.	.	.	.	.	.	.	.	.
=90	=90	=90	=90	=90	=90	=90	=90	=90	=90
8cL	.	1r	.	4e	mi-	4r	.	2a]	.
8AJ	.	.	.	.	.	.	.	.	.
2d	.	.	.	4d	-o	4f	In	.	.
.	.	.	.	4r	.	4f	dol-	2r	.
4D	-ver	.	.	4A	In	[4f	-cis-	.	.
=91	=91	=91	=91	=91	=91	=91	=91	=91	=91
1A	mi-	1r	.	4c	dol-	8fL]	.	4r	.
.	.	.	.	.	.	8fJ	-si-	.	.
.	.	.	.	4.c	-cis-	4f	-mi	4cc	In
.	.	.	.	.	.	4e	bac-	4cc	dol-
.	.	.	.	8c	-si-	.	.	.	.
.	.	.	.	4c	-mi	4e	-ci il	[4cc	-cis-
=92	=92	=92	=92	=92	=92	=92	=92	=92	=92
1E	-o	1r	.	4e	bac-	4g	man-	8ccL]	.
.	.	.	.	.	.	.	.	8ccJ	-si-
.	.	.	.	4e	-ci il	4g	-da	4cc	-mi
.	.	.	.	4e	man-	2g	fuo-	4b	bac-
.	.	.	.	4e	-da	.	.	4b	-ci il
=93	=93	=93	=93	=93	=93	=93	=93	=93	=93
4r	.	2r	.	1f	fuo-	1a	-re,	4dd	man-
4D	In	.	.	.	.	.	.	4dd	-da
4F	dol-	4r	.	.	.	.	.	2cc	fuo-
[4F	-cis-	4f	In	.	.	.	.	.	.
=94	=94	=94	=94	=94	=94	=94	=94	=94	=94
8FL]	.	4f	dol-	2c	-re,	4r	.	1a	-re,
8FJ	-si-	.	.	.	.	.	.	.	.
4F	-mi	4.f	-cis-	.	.	4cc	<In	.	.
4A	bac-	.	.	2r	.	4cc	dol-	.	.
.	.	8f	-si-	.	.	.	.	.	.
4A	-ci il	4f	-mi	.	.	[4cc	-cis-	.	.
=95	=95	=95	=95	=95	=95	=95	=95	=95	=95
4A	man-	4e	bac-	1r	.	8ccL]	.	2r	.
.	.	.	.	.	.	8ccJ	-si-	.	.
4A	-da	4f	-ci il	.	.	4cc	-mi	.	.
2B-X	fuo-	4d	man-	.	.	4f	bac-	4r	.
.	.	4d	-da	.	.	4f	-ci il	4ff	<In
=96	=96	=96	=96	=96	=96	=96	=96	=96	=96
1F	-re,	2c	fuo-	2r	.	4a	man-	4ff	dol-
.	.	.	.	.	.	4a	-da	4.ff	-cis-
.	.	2A	-re,	4r	.	2cc	fuo-	.	.
.	.	.	.	.	.	.	.	8ff	-si-
.	.	.	.	4c	<In	.	.	4ff	-mi
=97	=97	=97	=97	=97	=97	=97	=97	=97	=97
2r	.	4r	.	4c	dol-	2g	-re,>	4ee	bac-
.	.	4e	In	4.c	-cis-	.	.	4ee	-ci il
4r	.	4e	dol-	.	.	4r	.	4gg	man-
.	.	.	.	8c	-si-	.	.	.	.
4E	<In	[4g	-cis-	4c	-mi	4e	In	4gg	-da
=98	=98	=98	=98	=98	=98	=98	=98	=98	=98
4E	dol-	8gL]	.	4B	bac-	4b	dol-	2gg	fuo-
.	.	8gJ	-si-	.	.	.	.	.	.
4.G	-cis-	4d	-mi	4B	-ci il	4.b	-cis-	.	.
.	.	4g	bac-	4d	man-	.	.	2dd	-re,
8G	-si-	.	.	.	.	8b	-si-	.	.
4D	-mi	4f#X	-ci il	4d	-da	4a	-mi	.	.
=99	=99	=99	=99	=99	=99	=99	=99	=99	=99
2G	bac-	4.g	man-	1d	fuo-	2b	bac-	4r	.
.	.	.	.	.	.	.	.	4dd	il
.	.	8d	-da	.	.	.	.	.	.
2D	-ci il	4f	fuo-	.	.	4a	-ci il	4dd	man-
.	.	8dL	-re,	.	.	4a	man-	4ff	-da
.	.	8AJ	il	.	.	.	.	.	.
=100	=100	=100	=100	=100	=100	=100	=100	=100	=100
4A	man-	4A	man-	[1el	-re.	4cc	-da	1ee	fuo-
4A	-da	4c	-da	.	.	4.a	fuo-	.	.
2E	fuo-	2B	fuo-	.	.	.	.	.	.
.	.	.	.	.	.	8g#X	.	.	.
.	.	.	.	.	.	4g#i	.	.	.
=101	=101	=101	=101	=101	=101	=101	=101	=101	=101
1Al	-re.>	1Al	-re.	1e]	.	1al	-re.	1cc#Xl	-re.>
==	==	==	==	==	==	==	==	==	==
*-	*-	*-	*-	*-	*-	*-	*-	*-	*-
!!!system-decoration: [(s1)(s2)(s3)(s4)(s5)]
!!!YEM:	Luzzasco Luzzaschi, "Aminta poi ch'a Filli non dispiacque" 1576 (Sam 0367a; 2 Oct 2018) Tasso in Music Project (http://www.tassomusic.org) Copyright 2018 Emiliano Ricciardi
!!!RDF**kern: i = editorial accidental
!!!RDF**kern: l = terminal long
!!!ENC: Emiliano Ricciardi
!!!END: 2018
!!!EED: Donnelly, Daniel
!!!EEV: 2018/10/28
!!!YEC: Copyright 2018 Emiliano Ricciardi, All Rights Reserved
!!!ONB: Translated from MusicXML on 2018/10/28 and edited by Craig Stuart Sapp
